assets/icons/qvision/attractions.svg

<svg width="24" height="24" viewBox="0 0 24 24" fill="none" xmlns="http://www.w3.org/2000/svg">
<g clip-path="url(#clip0_147_5092)">
<path d="M10.4298 18.75C10.7998 18.29 11.3698 18 11.9998 18C12.6298 18 13.1898 18.29 13.5598 18.75C13.9498 18.66 14.3198 18.54 14.6798 18.39L13.2598 15.21C12.8698 15.36 12.4398 15.44 11.9998 15.44C11.5398 15.44 11.0998 15.35 10.6998 15.19L9.26981 18.38C9.64981 18.54 10.0298 18.67 10.4298 18.75ZM5.14981 10C4.98981 10.59 4.89981 11.21 4.89981 11.85C4.89981 12.6 5.01981 13.32 5.22981 14C5.85981 14.05 6.44981 14.4 6.78981 14.99C7.11981 15.56 7.13981 16.22 6.89981 16.78C7.16981 17.05 7.45981 17.31 7.76981 17.54L9.28981 14.15C8.81981 13.57 8.53981 12.83 8.53981 12.02C8.53981 10.13 10.0898 8.61 11.9998 8.61C13.9098 8.61 15.4598 10.14 15.4598 12.02C15.4598 12.84 15.1698 13.59 14.6798 14.18L16.1798 17.53C16.4998 17.29 16.7998 17.03 17.0798 16.74C16.8598 16.19 16.8798 15.54 17.1998 14.99C17.5298 14.42 18.0998 14.07 18.7198 14C18.9398 13.32 19.0598 12.59 19.0598 11.84C19.0598 11.2 18.9698 10.57 18.8098 9.98C18.1698 9.94 17.5498 9.59 17.2098 8.98C16.8498 8.36 16.8598 7.62 17.1798 7.03C16.2698 6.05 15.0798 5.32 13.7398 4.98C13.3898 5.6 12.7398 6 11.9998 6C11.2598 6 10.6098 5.59 10.2598 4.99C8.91981 5.33 7.72981 6.04 6.81981 7.02C7.14981 7.62 7.16981 8.37 6.79981 9C6.44981 9.62 5.80981 9.97 5.14981 10ZM3.84981 9.58C3.06981 8.98 2.82981 7.88 3.33981 7C3.84981 6.12 4.91981 5.77 5.82981 6.15C6.93981 4.98 8.38981 4.12 10.0098 3.73C10.1498 2.75 10.9898 2 11.9998 2C13.0098 2 13.8498 2.75 13.9798 3.73C15.6098 4.12 17.0498 4.97 18.1598 6.15C19.0698 5.77 20.1498 6.12 20.6498 7C21.1598 7.88 20.9198 8.98 20.1398 9.58C20.3698 10.35 20.4898 11.16 20.4898 12C20.4898 12.84 20.3698 13.65 20.1398 14.42C20.9198 15.02 21.1598 16.12 20.6498 17C20.1398 17.88 19.0698 18.23 18.1598 17.85C17.7598 18.28 17.3098 18.66 16.8198 19L18.1598 22H16.2998L15.3298 19.83C14.8998 20.01 14.4498 20.16 13.9898 20.27C13.8498 21.25 13.0098 22 11.9998 22C10.9898 22 10.1498 21.25 10.0198 20.27C9.53981 20.15 9.07981 20 8.63981 19.81L7.65981 22H5.77981L7.13981 18.97C6.66981 18.64 6.22981 18.26 5.83981 17.85C4.91981 18.23 3.84981 17.88 3.33981 17C2.82981 16.12 3.06981 15.02 3.84981 14.42C3.61981 13.65 3.49981 12.84 3.49981 12C3.49981 11.16 3.61981 10.35 3.84981 9.58Z" fill="#323232"/>
</g>
<defs>
<clipPath id="clip0_147_5092">
<rect width="24" height="24" fill="white"/>
</clipPath>
</defs>
</svg>

<svg xmlns="http://www.w3.org/2000/svg" enable-background="new 0 0 24 24" height="24" viewBox="0 0 24 24" width="24"><g><rect fill="none" height="24" width="24"/></g><g><path d="M10.43,18.75C10.8,18.29,11.37,18,12,18c0.63,0,1.19,0.29,1.56,0.75c0.39-0.09,0.76-0.21,1.12-0.36l-1.42-3.18 c-0.39,0.15-0.82,0.23-1.26,0.23c-0.46,0-0.9-0.09-1.3-0.25l-1.43,3.19C9.65,18.54,10.03,18.67,10.43,18.75z M5.15,10 c-0.16,0.59-0.25,1.21-0.25,1.85c0,0.75,0.12,1.47,0.33,2.15c0.63,0.05,1.22,0.4,1.56,0.99c0.33,0.57,0.35,1.23,0.11,1.79 c0.27,0.27,0.56,0.53,0.87,0.76l1.52-3.39v0c-0.47-0.58-0.75-1.32-0.75-2.13c0-1.89,1.55-3.41,3.46-3.41 c1.91,0,3.46,1.53,3.46,3.41c0,0.82-0.29,1.57-0.78,2.16l1.5,3.35c0.32-0.24,0.62-0.5,0.9-0.79c-0.22-0.55-0.2-1.2,0.12-1.75 c0.33-0.57,0.9-0.92,1.52-0.99c0.22-0.68,0.34-1.41,0.34-2.16c0-0.64-0.09-1.27-0.25-1.86c-0.64-0.04-1.26-0.39-1.6-1 c-0.36-0.62-0.35-1.36-0.03-1.95c-0.91-0.98-2.1-1.71-3.44-2.05C13.39,5.6,12.74,6,12,6c-0.74,0-1.39-0.41-1.74-1.01 C8.92,5.33,7.73,6.04,6.82,7.02C7.15,7.62,7.17,8.37,6.8,9C6.45,9.62,5.81,9.97,5.15,10z M3.85,9.58C3.07,8.98,2.83,7.88,3.34,7 c0.51-0.88,1.58-1.23,2.49-0.85c1.11-1.17,2.56-2.03,4.18-2.42C10.15,2.75,10.99,2,12,2c1.01,0,1.85,0.75,1.98,1.73 c1.63,0.39,3.07,1.24,4.18,2.42c0.91-0.38,1.99-0.03,2.49,0.85c0.51,0.88,0.27,1.98-0.51,2.58c0.23,0.77,0.35,1.58,0.35,2.42 s-0.12,1.65-0.35,2.42c0.78,0.6,1.02,1.7,0.51,2.58c-0.51,0.88-1.58,1.23-2.49,0.85c-0.4,0.43-0.85,0.81-1.34,1.15l1.34,3H16.3 l-0.97-2.17c-0.43,0.18-0.88,0.33-1.34,0.44C13.85,21.25,13.01,22,12,22c-1.01,0-1.85-0.75-1.98-1.73 C9.54,20.15,9.08,20,8.64,19.81L7.66,22H5.78l1.36-3.03c-0.47-0.33-0.91-0.71-1.3-1.12C4.92,18.23,3.85,17.88,3.34,17 c-0.51-0.88-0.27-1.98,0.51-2.58C3.62,13.65,3.5,12.84,3.5,12S3.62,10.35,3.85,9.58z"/></g></svg>
